X:1
T:Ad stabat coram sacro
T:Giovanni Paola Colonna (1637-1695)
T:Source: Collection di Mario Sylvana, Museo internazionale e biblioteca della musica di Bologna 
T:Ad stabat coram sacro
T:WJ Looyestijn - 2017 - May be freely copied for non-commercial use.
T:WJ Looyestijn - 2017 - May be freely copied for non-commercial use.
T:WJ Looyestijn - 2017 - May be freely copied for non-commercial use.
T:WJ Looyestijn - 2017 - May be freely copied for non-commercial use.
T:WJ Looyestijn - 2017 - May be freely copied for non-commercial use.
T:WJ Looyestijn - 2017 - May be freely copied for non-commercial use.
T:WJ Looyestijn - 2017 - May be freely copied for non-commercial use.
T:WJ Looyestijn - 2017 - May be freely copied for non-commercial use.
T:WJ Looyestijn - 2017 - May be freely copied for non-commercial use.
T:WJ Looyestijn - 2017 - May be freely copied for non-commercial use.
T:WJ Looyestijn - 2017 - May be freely copied for non-commercial use.
T:WJ Looyestijn - 2017 - May be freely copied for non-commercial use.
T:WJ Looyestijn - 2017 - May be freely copied for non-commercial use.
T:WJ Looyestijn - 2017 - May be freely copied for non-commercial use.
T:WJ Looyestijn - 2017 - May be freely copied for non-commercial use.
T:WJ Looyestijn - 2017 - May be freely copied for non-commercial use.
T:WJ Looyestijn - 2017 - May be freely copied for non-commercial use.
T:WJ Looyestijn - 2017 - May be freely copied for non-commercial use.
T:WJ Looyestijn - 2017 - May be freely copied for non-commercial use.
T:WJ Looyestijn - 2017 - May be freely copied for non-commercial use.
T:WJ Looyestijn - 2017 - May be freely copied for non-commercial use.
T:WJ Looyestijn - 2017 - May be freely copied for non-commercial use.
T:WJ Looyestijn - 2017 - May be freely copied for non-commercial use.
T:WJ Looyestijn - 2017 - May be freely copied for non-commercial use.
T:WJ Looyestijn - 2017 - May be freely copied for non-commercial use.
T:WJ Looyestijn - 2017 - May be freely copied for non-commercial use.
T:WJ Looyestijn - 2017 - May be freely copied for non-commercial use.
C:Giovanni Paola Colonna
C:(1637-1695)
Z:WJ Looyestijn - 2017 - May be freely copied for non-commercial use.
%%score [ 1 2 3 ] 4
L:1/8
Q:1/4=120
M:4/4
K:C
V:1 alto1 nm="Anima" snm="A"
V:2 alto1 nm="Testo" snm="T"
V:3 bass nm="Christo" snm="B"
V:4 bass nm="Bass" snm="B"
V:1
 x8 | x8 | x8 | z8 | z8 | z8 | z8 | z8 | z8 | z8 | z8 | z8 | z8 | z8 | z8 | z8 | z8 | z8 | z8 | %19
w: |||||||||||||||||||
 z8 | z8 | z8 |[M:3/4]"^Anima" z2 z2 d2 | B2 d2 A2 | B2 G/B/A/c/ B/d/c/e/ | de/f/ gG/A/ B/c/d/B/ | %26
w: |||Sol|mi sol re-|sur- ge, * * * * * * *||
 e/d/c/d/ e/g/f/e/ d/c/B/A/ | GA/B/ c/d/e/f/ g2 | CD E^F GA | B G/A/ Bc de | ^fd/e/ fe dc | %31
w: ||re- * * * * *|sur- ge, * * * * *||
 BA B/d/c/e/ de | ^f4 gf | e2 A2 d2 | g^f e4 | d4 d2 | B4 d2 | B2 d2 A2 | B/A/G/A/ Bc d/B/c/d/ | %39
w: |* re- *|sur- ge, re-|sur- * *|ge sol|mi sol|mi sol re-|splen- * * * * * * * * *|
 e2 c2 g2 | e2 g2 d2 | e2 c/e/d/e/ c/d/B/c/ | A4 d/e/ c/d/ | B2 G2 gf | ed cB AG | A/B/c/d/ c4 | %46
w: * de sol|mi sol re-|sur- ge- * * * * * * *|* * * re- *|sur- ge, re- *|sur- * ge, * re- *|sur- * * * *|
 B4 d2 | g2 g2 g2 | e2 e2 e2 | ^f2 f2 f2 | ^d2 B2 ^cd | e2 ^d2 e^f | B2 g^f ef | d2 ^c4 | B4 d2 | %55
w: ge tu|tur- bi- dam|men- tem o-|bi- cu- ram|al- gen- tem il-|lu- mi- * *|na ac- * * *|* cen-|de, il-|
 G2 A2 B2 | E2 E^F GA | Bc dG Bd | cA cd ef | g6- | gf ed cB | A2 D2 dc | B2 A4 | G6- | G6 | z6 || %66
w: lu- mi- *|na ac- * * *|||cen-||* de, ac- *|cen- *|de.|||
 z2 z2 D2 | G2 A2 _B2 | A2 D2 d2 | ed e^c de | ^f2 d2 d2 | g2 g2 g2 | e2 e2 e2 | ^f2 f2 f2 | %74
w: En|so- la fal-|la- ci mens|cin- * gi- * tur *|um- bra quae|so- li ve-|ra- ci in|si- nu de-|
 ^d2 B2 d2 | eB e3 d | ^c2 c2 c2 | de ^fe dc | B3 d e^f | g3 B cd | e3 G AB | cA BE e^f | %82
w: vo- to cum|re- * ces cum|vo- to sa-|cra- * * * * *|||||
 g^f ed ^cB | d2 ^c4 | B4 d2 | d2 c2 c2 | c2 B2 B2 | e2 A2 A2 | d2 G2 G2 | AG AB cd | B2 c2 d2 | %91
w: * * vit * de *|lu- *|bra in|si- nu de-|vo- to, cum|pre- ces cum|vo- to sa-|cra- * * * * *|* vit de|
 ed c4 | B4 d2 | G2 A2 B2 | E3 F GA | Bc dG Bd | cA cd ef | g6- | gf ed cB | A2 D2 dc | B2 A4 | %101
w: lu- * *|bra sa-|cra * *||||||* vit, de *|lu- *|
 G6- | G6 | z6 ||[M:4/4] DE ^FG A2 B2 | AB GA ^F2 D2 | z4 d2 A2 | B2 ^F2 z2 gf | ed cB z2 gf | %109
w: bra.|||sol- * re- * na- ses|o- * ri- * en- tis|dum re-|sur- git, dum re-|sur- * git, * dum re-|
 ed cB AD dc | B3 A G3 ^F | E2 A2 D2 dc | BA GF E4 | D4 z2 ^fe | d2 e^f de ^cd/e/ | dBgg ^c2 ^f2 | %116
w: sur- * git * um- * bra- *|ca- * * *|||dant, ut te|so- lo * sa- * tur * *|e- at sa- cra fa- mes|
 B2 e2 ^AF B2- | B^c/B/ ^A2 B4 | z2 dc B2 AB | GA/B/ AG ^FDAA | DE ^FG A2 dc | B2 e2 ^cA d2- | %122
w: fi- de men- * *|* * * * tis,|ut te so- lo *|sa- * * tur * e- at sa- cra|fa- * * * * mes *|fi- de men- * *|
 de/d/ ^c2 d4 || z8 | z8 | z8 | z8 | z8 | z8 | z8 | z8 | z8 | z8 | z8 | z8 || z8 | z8 | z8 | z8 | %139
w: * * * * tis.|||||||||||||||||
 z8 | z8 | z8 | z8 | z8 | z8 | z8 | z8 | z8 | z8 | z8 | z8 |[M:3/4] z2"^Anima" z2 d2 | B2 d2 A2 | %153
w: ||||||||||||Sol|mi sol re-|
 B2 G2 z2 | z6 | z2 z2 d2 | B2 d2 A2 | B2 G2 z2 | z6 | z2 z2 d/e/d/c/ | B2 G2 G/A/F/G/ | %161
w: sur- ge,||sol|mi sol re-|sur- ge,||re * * *|sur- ge, re- * * *|
 E2 ^F2 G2- | G2 G3 ^F | G6 | z6 | z6 | z6 | z2 z2 g2 | e2 g2 d2 | e2 c2 e2 | d3 e cd | B2 G2 c2 | %172
w: sur- ge, re-|* sur- ge.|||||Sol|mi sol re-|ful- ge, re-|ful- * * *|* ge, re-|
 A2 B2 c2- | c2 c3 B | c6 | z6 | z6 | z6 | z2 z2 d2 | B2 d2 A2 | B2 G2 c2 | AG AB cA | BA Bc dB | %183
w: ful- ge, re-|* ful- ge.|||||Sol|mi sol re-|splen- de, re-|splen- * * * * *||
 ef de cd | B2 G2 g2 | f4 e2 | fe d4 | c4 z2 | z6 | z2 z2 d2 | BA Bc dB | ed e^f ge | ^f2 d2 d2 | %193
w: |* de, re-|splen- de,|re- * splen-|de,||re-|splen- * * * * *||* de, re-|
 G2 A2 B2 | cB A4 | G4 B2 | B2 B2 B2 | B2 B2 B2 | B2 B2 B2 | A4 A2 | z2 A2 A2 | B2 B^c d2 | %202
w: splen- de, re-|spen- * *|de et|tur- bi- dam|men- tem ob-|scu- ram al-|gen- tem|tu- o|lu- mi- * *|
 ^c4 ^f2 | BA Bc dB | ^cB cd ec | d2 A2 ^F2 | G^F GA B2 | A2 D2 d2 | B2 G2 g2 | e6 | e4 e2- | %211
w: ne ac-|cen- * * * * *|||||||de, ac-|
 e2 e4 | d6 | z6 | z2 d2 d2 | e2 e^f g2 | ^f4 g2 | e4 ^f2 | d4 e2 | c4 d2 | Bc AB GA | ^F2 D2 d2 | %222
w: * cen-|de,||tu- o|lu- mi- * *|ne ac-|cen- *||||* de, ac-|
 e2 c2 B2- | B2 A4 | G2 d2 d2 | d2 d4 | d6 | z6 | z2 z2 d2 | e2 d3 c | B2 G2 d2 | e2 A2 ^f2 | g6- | %233
w: cen- de, ac-|* cen-|de tu- o|lu- mi-|ne,||ac-|cen- * *||||
 g6 | c2 d2 e2 | A2 B2 ^c2 | d6- | d2 e2 f2 | g2 d2 e2 | ^f2 e2 f2 | g2 ^fe d2 | ed c4 | B4 d2 | %243
w: |||||||||de, ac-|
 c2 B2 A2 | B2 A4 | G6 |[M:3/2] z12 | z12 |"^Anima" z4 z4 d4 | e6 f2 g4 | ^f4 d4 =f4 | f4 f4 f4 | %252
w: cen- * de,|ac- cen-|de.|||A-|mo- ris di-|vi- ni dul-|cis- si- mæ|
 f4 e2 d2 e2 c2 | d6 c2 d2 B2 | c12 | B8 B4 | A4 A4 A4 | A4 A4 z4 | z12 | z4 z4 g4 | f6 f2 e4- | %261
w: pæ- * * * *|||næ, dul-|cis- si- mæ|pæ- næ,||dul-|cis- si- mæ|
 e4 d8 | c8 G4 | A4 B4 c4 | B4 G4 d4 | d6 d2 ^c4 | d4 A4 z4 | z12 | z4 z4 d4 | d4 c4 c4 | %270
w: * pæ-|næ. fe-|ri- te pla-|ga- te a-|mo- re lan-|guen- tes,||do-|lo- re, do-|
 c4 B4 B4 | B4 A4 A4 | A4 A4 z4 | z12 | z12 | z12 | z4 z4 d4 | e4 ^f4 g4 | ^f4 d4 A4 | %279
w: lo- re, do-|lo- re be-|a- te||||A-|mo- re lan-|guo- res lan-|
 B2 A2 B2 c2 d2 e2 | c4 A4 e4 | e6 e2 ^d4 | e4 e4 d4- | d4 c8- | c4 B4 e4 | c12 | B8 g4 | %287
w: guo- * ris * a- *|man- tes do-|lo- re be-|a- te, do-|* lo-|* re be-|a-|te, nec|
 f6 e2 d4 | e4 c4 G4 | G6 G2 ^F4 | G4 G4 z4 | z12 | z4 z4 d4 | c6 c2 c4 | B4 B4 d4 | z4 e8 | %296
w: stel- lis ca-|re- tis o|noc- tes se-|re- næ,||o|noc- tes se-|re- næ, o,|o,|
 d4 d4 d4 | c4 A4 B4- | B4 A8 | G12 | z12 | z4 z4 d4 | e6 ^f2 g4 | ^f4 d4 =f4 | f4 f4 f4 | %305
w: noc- tes, o|noc- tes se-|* re-|næ.||A-|mo- ris di-|vi- ni dul-|cis- si- mæ|
 f4 e2 d2 e2 c2 | d6 c2 d2 B2 | c12 | B8 B4 | A4 A4 A4 | A4 A4 z4 | z12 | z4 z4 g4 | f6 f2 e4- | %314
w: pæ- * * * *|||næ. dul-|cis- si- mæ|pæ- næ,||dul-|cis- si- mæ|
 e4 d8 | c8 d4 | d4 c4 c4 | c4 B4 d4 | c4 A4 B4- | B4 A8 | G12 |[M:4/4] z dBG c/d/c/B/ A/B/c/A/ | %322
w: * pæ-|næ, dul-|cis- si- mæ|pæ- næ, dul-|cis- si- mæ|* pæ-|næ.|Al- le- lu- ia, * * * * * * *|
 B/c/d/c/ B/A/G/F/ E/e/f/g/ c/d/e/c/ | A^F B/c/d/e/ A/B/c/B/ A>A | GG d2- d2 ^c2 | d4 z4 | z8 | %327
w: |* * al- * * * * * * * le- lu-|ia, al- le- * lu-|ia,||
 z4 z d g2- | g2 ^f2 gB AG/^F/ | GA/B/ E^F/G/ F2 z2 | z8 | z4 z D G2- | G2 ^F2 GB AG/F/ | %333
w: al- le-|* lu- ia, * * * *|||al- le-|* lu- ia, * al- * *|
 GA/B/ E^F/G/ F/D/E/F/ G/A/F/G/ | E/^F/G/A/ B/c/d/e/ A/B/c/B/ A>A | G4 z4 | z4 z G d2- | %337
w: |* * * * * * * * * * * * le- lu-|ia,|al- le-|
 d2 ^c2 d4 | z dBG c/d/c/B/ A/B/c/A/ | B/A/G/A/ B/c/d/B/ ^c/B/A/B/ c/d/e/=c/ | %340
w: * lu- ia,|al- le- lu- ia, * * * * * * *||
 d4 c/G/A/B/ c/d/B/c/ | A2 B4 c2 | A2 A2 Gdgf | ec/d/ e/f/g/e/ ^f^F GA/B/ | Ad BG ^F2 B2 | %345
w: |* * al-|le- lu- ia, al- le- lu-|ia, * * * * * * * * * * *||
 A2 B2 A3 A | G8 |] %347
w: * al- le- lu-|ia.|
V:2
 x8 | x8 | x8 |"^Testo" z2 D2 G2 G2 | GG GG/A/ A2 A2 | cc/c/ dA Bc/d/ B2 | z GBc dd z d | %7
w: |||Ad sta- bat|co- ram sa- cro al- ta- ri|a- ni- ma de- so- la- * * ta|et qua- si- cæ- na lu-|
 ddde c2 c2 | z geg c2 c2 | G2 G2 z GAB | c3 c/B/ B2 B2 | z dde f>f f2 | z d/e/ f>e e2 e2 | %13
w: mi- ni- bus in- ter- nis|per quos so- le- bat|o- lim a su- a-|vis- si- mo Je- su|a splen- di- dis- si- mo|so- * * le su- o|
 G2 AB c2 cB | B2 B2 d2 z/ d/B/d/ | G2 G2 z Bcd | G2 G^F A2 A2 | dA z A/B/ c2 cB | B>B B2 z2 g2 | %19
w: qua- si in cæ- los trans-|la- ta vel de cæ- lo|mis- sa be- a- ti-|ta- te do- na- ri|quan- do a- * mo- ris im-|pa- ti- ens in|
 e2 e2 e/f/g/e/ c/d/e/c/ | A2 D2 z D G2- | G3 ^F G4 |[M:3/4] z6 | z6 | z6 | z6 | z6 | z6 | z6 | %29
w: ta- les pro- * * * ru- * * *|* pit af- fec-|* * tus.||||||||
 z6 | z6 | z6 | z6 | z6 | z6 | z6 | z6 | z6 | z6 | z6 | z6 | z6 | z6 | z6 | z6 | z6 | z6 | z6 | %48
w: |||||||||||||||||||
 z6 | z6 | z6 | z6 | z6 | z6 | z6 | z6 | z6 | z6 | z6 | z6 | z6 | z6 | z6 | z6 | z6 | z6 || z6 | %67
w: |||||||||||||||||||
 z6 | z6 | z6 | z6 | z6 | z6 | z6 | z6 | z6 | z6 | z6 | z6 | z6 | z6 | z6 | z6 | z6 | z6 | z6 | %86
w: |||||||||||||||||||
 z6 | z6 | z6 | z6 | z6 | z6 | z6 | z6 | z6 | z6 | z6 | z6 | z6 | z6 | z6 | z6 | z6 | z6 || %104
w: ||||||||||||||||||
[M:4/4] z8 | z8 | z8 | z8 | z8 | z8 | z8 | z8 | z8 | z8 | z8 | z8 | z8 | z8 | z8 | z8 | z8 | z8 | %122
w: ||||||||||||||||||
 z8 ||"^Testo" c2 c2 z2 ec | ^G2 GA A2 A2 | c>c de A>A AA | d>d dA dd/A/ B2 | z2 z G E>E E2 | %128
w: |Quan- do ve- lut|nu- be fu- ga- ta|so- li- to * splen- di- or ap-|pa- ru- it ju- sti- ti- ae sol|et te- ne- bris|
 z2 EG CD/E/ F/G/A/B/ | c2 c2 z e/d/ cd/e/ | A2 A2 A3 A | G4 z BBB | e3 ^d e2 e2 | z Bcd c>c c2 | %134
w: dis- si- pa- * * * * * *|* tis se- re- nis- si- mum|di- em at- tu-|lit et ra- di-|o- rum lin- gua|ad au- res a- ni- mæ|
 z d/e/ c>B A4 || z8 | z8 | z8 | z8 | z8 | z8 | z8 | z8 | z8 | z8 | z8 | z8 | z8 | z8 | z8 | z8 | %151
w: lo- * quu- tus est.|||||||||||||||||
[M:3/4] z6 | z6 | z6 | z6 | z6 | z6 | z6 | z6 | z6 | z6 | z6 | z6 | z6 | z6 | z6 | z6 | z6 | z6 | %169
w: ||||||||||||||||||
 z6 | z6 | z6 | z6 | z6 | z6 | z6 | z6 | z6 | z6 | z6 | z6 | z6 | z6 | z6 | z6 | z6 | z6 | z6 | %188
w: |||||||||||||||||||
 z6 | z6 | z6 | z6 | z6 | z6 | z6 | z6 | z6 | z6 | z6 | z6 | z6 | z6 | z6 | z6 | z6 | z6 | z6 | %207
w: |||||||||||||||||||
 z6 | z6 | z6 | z6 | z6 | z6 | z6 | z6 | z6 | z6 | z6 | z6 | z6 | z6 | z6 | z6 | z6 | z6 | z6 | %226
w: |||||||||||||||||||
 z6 | z6 | z6 | z6 | z6 | z6 | z6 | z6 | z6 | z6 | z6 | z6 | z6 | z6 | z6 | z6 | z6 | z6 | z6 | %245
w: |||||||||||||||||||
 z6 |[M:3/2] z4"^Testo" z4 G4 | A6 B2 c4 | B4 G4 A4 | G6 G2 G4 | A4 ^F4 d4 | c4 c4 d4 | G4 c8- | %253
w: |A-|mo- ris di-|vi- ni dul-|cis- si- mæ|pæ- næ, dul-|cis- si- mæ|pæ- *|
 c4 B2 A2 B2 G2 | A12 | G12 | z12 | z12 | z12 | z4 z4 c4 | A4 A2 B2 c4- | c4 c6 B2 | c8 z4 | z12 | %264
w: ||næ,||||dul-|cis- si- * mæ|* pæ- *|næ.||
 z4 z4 D4 | E4 ^F4 G4 | ^F4 D4 G4 | G6 G2 ^F4 | G4 D4 B4 | B4 G4 A4 | A4 ^F4 G4 | G4 G4 G4 | %272
w: A-|mo- ris lan-|guo- res lan-|guo- ris a-|man- tes do-|lo- re, do-|lo- re, do-|lo- re be-|
 G4 ^F4 z4 | z12 | z4 z4 G4 | A4 B4 c4 | B4 G4 A4 | G6 G2 G4 | A4 ^F4 z4 | z12 | z4 z4 E4 | %281
w: a- te||fe-|ri- te pla-|ga- te a-|mo- re lan-|guen- tes,||do-|
 ^F2 E2 F2 G2 A2 B2 | G4 E4 G4 | E8 e4 | d4 d4 G4 | A12 | D12 | z12 | z4 z4 d4 | c6 B2 A4 | %290
w: lo- * re * be- *|a- te, do-|lo- *|* re be-|a-|te,||nec|stel- lis ca-|
 B4 G4 c4 | c6 c2 B4 | c4 c4 G4 | A6 A2 A4 | D4 D4 B4 | z4 c8 | B4 G4 D4 | E4 ^F4 G4- | %298
w: re- tis o|noc- tes se-|re- næ, o|noc- tes se-|re- næ, o,|o,|noc- tes, o|noc- tes se-|
 G4 G6 (^F2 | G8) G4 | A6 B2 c4 | B4 G4 A4 | G6 G2 G4 | A4 ^F4 d4 | c4 c4 d4 | G4 c8- | %306
w: * re- næ.|* A-|mo- ris di-|vi- ni dul-|cis- si- mæ|pæ- næ, dul-|cis- si- mæ|pæ- *|
 c4 B2 A2 B2 G2 | A12 | G12 | z12 | z12 | z12 | z4 z4 c4 | A4 A2 B2 c4- | c4 c6 (B2 | c8) G4 | %316
w: ||næ,||||dul-|cis- si- * mæ|* pæ- næ,|* dul-|
 E4 E4 ^F4 | G4 G4 D4 | E4 F4 G4- | G4 G6 ^F2 | G12 |[M:4/4] z8 | z8 | z D G2- G2 ^F2 | %324
w: cis- si- mæ|pæ- næ, dul-|cis- si- mæ|* pæ- næ.||||Al- le- * lu-|
 GB AG/^F/ GA/B/ EF/G/ | ^F/D/E/F/ G/A/F/G/ E/F/G/E/ F/G/A/F/ | G/A/B/c/ d/B/c/d/ edcB | A4 z2 B2 | %328
w: ia, * * * * * * * * * *||* * * * * * * * * al- le- lu-|ia, al-|
 A3 A G2 z2 | z4 z dBG | c/d/c/B/ A/B/c/A/ B/c/d/c/ B/A/G/F/ | %331
w: le- lu- ia,|al- le- lu-|ia, * * * * * * * * * * * * * * *|
 E/e/f/g/ c/d/e/c/ A/^F/G/A/ B/c/d/e/ | A/B/c/B/ A>A GG d2- | d2 ^c2 d4 | c2 B2 E2 ^F2 | %335
w: |al- * * * le- lu- ia, al- le-|* lu- ia,|al- * le- lu-|
 Ggfd g/a/g/f/ e/f/g/e/ | ^f/g/a/g/ f/e/d/c/ B/A/B/G/ A/B/c/d/ | %337
w: ia, al- le- lu- ia, * * * * * * *||
 B/c/B/A/ G^F/E/ F/E/D/E/ F/G/A/F/ | Gd g4 ^f2 | gd g/a/ g/f/ e/d/c/B/ A/G/F/E/ | %340
w: |* al- le- lu-|ia, al- le- * lu- * ia, * * * * * * *|
 ^F/D/E/F/ G/A/F/G/ EF/G/ A/B/G/A/ | ^F3 E/F/ G4 | z Adc BG/A/ B/c/d/B/ | c3 B Ad BG | %344
w: ||al- le- lu- ia, * * * * * *||
 ^F2 GA/B/ A2 G2 | ^F2 G4 F2 | G8 |] %347
w: * * * * * al-|le- lu- *|ia.|
V:3
 x8 | x8 | x8 | z8 | z8 | z8 | z8 | z8 | z8 | z8 | z8 | z8 | z8 | z8 | z8 | z8 | z8 | z8 | z8 | %19
w: |||||||||||||||||||
 z8 | z8 | z8 |[M:3/4] z6 | z6 | z6 | z6 | z6 | z6 | z6 | z6 | z6 | z6 | z6 | z6 | z6 | z6 | z6 | %37
w: ||||||||||||||||||
 z6 | z6 | z6 | z6 | z6 | z6 | z6 | z6 | z6 | z6 | z6 | z6 | z6 | z6 | z6 | z6 | z6 | z6 | z6 | %56
w: |||||||||||||||||||
 z6 | z6 | z6 | z6 | z6 | z6 | z6 | z6 | z6 | z6 || z6 | z6 | z6 | z6 | z6 | z6 | z6 | z6 | z6 | %75
w: |||||||||||||||||||
 z6 | z6 | z6 | z6 | z6 | z6 | z6 | z6 | z6 | z6 | z6 | z6 | z6 | z6 | z6 | z6 | z6 | z6 | z6 | %94
w: |||||||||||||||||||
 z6 | z6 | z6 | z6 | z6 | z6 | z6 | z6 | z6 | z6 ||[M:4/4] z8 | z8 | z8 | z8 | z8 | z8 | z8 | z8 | %112
w: ||||||||||||||||||
 z8 | z8 | z8 | z8 | z8 | z8 | z8 | z8 | z8 | z8 | z8 || z8 | z8 | z8 | z8 | z8 | z8 | z8 | z8 | %131
w: |||||||||||||||||||
 z8 | z8 | z8 | z8 ||"^Christo" D2 A,2 B,2 G,2 | E,2 A,2 ^F,2 D,2 | z4 A,,B,, ^C,D, | %138
w: ||||Sol re- nas- cor|o- ri- en- tis|en * re- *|
 E,2 E,2 A,,B,, ^C,D, | E,2 E,A, B,A, ^G,A,/B,/ | A,E, ^C,A,, E,3 ^F,/G,/ | %141
w: sur- go, en * re- *|sur- go ut um- * bra * *|ca- * * * * * *|
 A,^F, ^D,E,/F,/ ^G,2 E,2 | z2 A,E, ^F,G, A,2 | A,2 ^G,A,/B,/ A,E, A,/B,/ =G,/A,/ | %144
w: * * * * * * dat|que me do- * lo|sa- rur * * e- at sa- * cra *|
 ^F,/G,/A,/G,/ F,E, D,/E,/F,/E,/ D,^C, | B,,B, A,G, ^F,A, D,D/C/ | %146
w: fa- * * * * * * * * * * *||
 B,A,G,F, E,/D,/^C,/B,,/ A,,/E,/F,/G,/ | ^F,D, D^C B,4 | A,2 ^F,F, G,3 A, | B,2 ^F,G, A,4 | D,8 | %151
w: * mes fi- de men- * * * * * * *||tis, sa- cra fa- mes|fi- de * men-|tis.|
[M:3/4] z6 | z6 | z2 z2"^Christo" D,2 | E,D, E,^F, G,A, | ^F,2 D,2 z2 | z6 | z2 z2 D,2 | %158
w: ||Di-|lec- * * * * *|* ta,||di-|
 E,D, E,F, G,A,/G,/ | ^F,2 D,2 F,2 | G,2 G,2 B,,2 | C,2 D,2 E,2 | C,2 D,4 | G,,4 G,2 | %164
w: lec- * * * * * *|* ta, di-|lec- ta, di-|lec- ta re-|sur- *|ge, di-|
 A,G, A,B, CD/C/ | B,2 G,2 C2 | A,2 E,2 F,2- | F,2 G,2 G,,2 | C,2 z2 z2 | z2 z2 C2 | B,3 C A,B, | %171
w: lec- * * * * * *|* ta, di-|lec- ta re-|* sur- *|ge,|di-|lec- * * *|
 G,2 G,2 E,2 | F,2 G,2 A,2 | F,2 G,4 | C,4 D,2 | E,D, E,F, G,A,/G,/ | ^F,2 D,2 B,,2 | %177
w: * ta, di-|lec- ta re-|sur- *|ge, di-|lec- * * * * * *|* ta, di-|
 C,2 B,,2 C,2 | D,6 | G,,2 z2 z2 | z2 z2 E,2 | F,E, F,G, A,F, | G,F, G,A, B,G, | CD B,C A,B, | %184
w: lec- ta re-|splen-|de,|di-|lec- * * * * *|||
 G,2 G,2 E,2 | F,G, A,B, C2 | F,2 G,2 G,,2 | C,4 G,2 | E,D, E,^F, G,E, | ^F,E, F,G, A,F, | %190
w: * ta re-|splen- * * * *||de, di-|lec- * * * * *||
 G,^F, G,E, D,G, | C,B,, C,D, E,C, | D,2 D,2 G,2 | E,2 ^F,2 G,2 | C,2 D,4 | G,,4 G,2 | %196
w: ||* ta, di-|lec- * ta|re- splen-|de et|
 G,2 G,2 G,2 | G,2 G,2 G,2 | G,2 G,2 G,2 | ^F,4 F,2 | z6 | z6 | z6 | z6 | z6 | z2 D,2 D,2 | %206
w: tur- bi- dam|men- tem ob-|scu- ram al-|gen- tem||||||me- o|
 E,2 E,^F, G,2 | ^F,4 F,2 | G,^F, G,A, B,G, | A,G, A,B, ^CA, | B,3 A, G,2- | G,2 A,4 | %212
w: lu- mi- * *|ne ac-|cen * * * * *||||
 D,2 G,2 G,2 | A,2 A,B, C2 | B,4 A,2 | G,^F, G,A, B,^C | DE DC B,G, | CD CB, A,^F, | %218
w: ||||||
 B,C B,A, G,E, | A,B, A,G, ^F,D, | G,2 ^F,2 E,2 | D,2 D,2 B,,2 | C,2 A,,2 G,,2- | G,,2 D,4 | %224
w: |||* de, ac-|cen- de, ac-|* cen-|
 G,,2 z2 z2 | z6 | z2 z2 B,2 | B,2 A,3 G, | A,2 D,4 | z6 | z2 G,2 G,2 | G,2 G,4 | G,2 A,2 B,2 | %233
w: de,||ac-|cen- * *|* de||me- o|lu- mi-|ne ac- *|
 E,2 ^F,2 G,2 | A,4 G,2 | ^F,4 E,2 | D,2 E,3 ^F, | G,4 ^F,2 | E,2 B,,2 C,2 | D,2 C,2 D,2 | %240
w: cen- * *|||||||
 E,4 B,,2 | C,2 A,,2 D,2 | G,,4 ^F,2 | E,2 D,2 C,2 | D,2 D,,4 | G,,6 |[M:3/2] z12 | z12 | z12 | %249
w: ||de, ac-|cen- de, ac-|cen- *|de.||||
 z12 | z12 | z12 | z12 | z12 | z12 | z4"^Christo" z4 D,4 | E,6 ^F,2 G,4 | ^F,4 D,4 G,4 | %258
w: ||||||A-|mo- ris di-|vi- ni dul-|
 A,6 B,2 C4 | B,4 G,4 E,4 | F,6 F,2 C,4- | C,4 G,8 | C,8 z4 | z12 | z12 | z12 | z4 z4 G,4 | %267
w: cis- si- mæ|pæ- næ, dul-|cis- si- mæ|* pæ-|næ,||||lan-|
 A,4 B,4 C4 | B,4 G,4 G,4 | E,4 E,4 F,4 | D,4 D,4 E,4 | C,4 C,4 ^C,4 | D,4 D,4 D,4 | E,4 ^F,4 G,4 | %274
w: guo- ris a-|man- tes do-|lo- re, do-|lo- re, do-|lo- re be-|a- te fe-|ri- te pla-|
 ^F,4 D,4 G,4 | G,6 G,2 ^F,4 | G,4 G,,4 ^F,4 | E,6 E,2 E,4 | D,4 D,4 z4 | z12 | z12 | z12 | %282
w: ga- te a-|mo- re lan-|guen- tes, lan-|guo- ris a-|man- tes,||||
 z4 z4 B,,4 | C,2 B,,2 C,2 D,2 E,2 F,2 | G,4 G,4 G,4- | G,4 G,4 ^F,4 | G,12 | z12 | z12 | z12 | %290
w: do-|lo- * * * * *|* re be-|* a- *|te,||||
 z4 z4 G,4 | F,6 E,2 D,4 | E,4 C,4 G,4 | G,6 G,2 F,4 | G,4 G,4 G,4 | C12 | z4 z4 B,,4 | %297
w: nec|stel- lis ca-|re- tis o|noc- tes se-|re- næ, o,|o,|o|
 C,4 C,4 G,,4- | G,,4 D,4 D,,4 | G,,12 | z12 | z12 | z12 | z12 | z12 | z12 | z12 | z12 | %308
w: noc- tes se-|* re- *|næ.|||||||||
 z4 z4 D,4 | E,6 ^F,2 G,4 | ^F,4 D,4 G,4 | A,6 B,2 C4 | B,4 G,4 E,4 | F,6 F,2 C,4- | C,4 G,8 | %315
w: A-|mo- ris di-|vi- ni dul-|cis- si- mæ|pæ- næ, dul-|cis- si- mæ|* pæ-|
 C,8 B,,4 | C,4 C,4 D,4 | E,4 E,4 B,,4 | C,4 C,4 G,,4- | G,,4 D,8 | G,,12 |[M:4/4] z8 | z8 | z8 | %324
w: næ, dul-|cis- si- mæ|pæ- næ, dul-|cis- si- mæ|* pæ-|næ.||||
 z8 | z DB,G, C/D/C/B,/ A,/B,/C/A,/ | B,/C/D/C/ B,/A,/G,/F,/ E,/C,/E,/F,/ G,/E,/F,/G,/ | %327
w: |Al- le- lu- ia, * * * * * * *||
 ^F,/^D,/E,/F,/ G,/A,/B,/C/ DB,G,C, | D,3 D, G,,G, D2- | D2 ^C2 DD, G,2- | %330
w: * * * * * * * * * * * al-|le- lu- ia, al- le-|* lu- ia, al- le-|
 G,2 ^F,2 G,/A,/B,/A,/ G,/F,/E,/D,/ | C,4 D,2 B,,2 | C,2 D,2 G,,2 z2 | z4 z D,B,,G,, | %334
w: * lu- ia, * * * * * * *|* * al-|le- lu- ia,|al- le- lu-|
 C,/D,/E,/F,/ G,G,, C,CDD, | G,,/A,,/B,,/C,/ D,/E,/C,/D,/ B,,/G,,/A,,/B,,/ C,/D,/E,/C,/ | %336
w: ia, * * * * * * al- le- lu-|ia, * * * * * * * * * * * * * * *|
 D,/E,/F,/E,/ D,/C,/B,,/A,,/ G,,G,^F,D, | G,/A,/G,/^F,/ E,/F,/G,/E,/ F,/G,/A,/G,/ F,/E,/D,/C,/ | %338
w: * * * * * * * * * al- le- lu-|ia, * * * * * * * * * * * * * * *|
 B,,3 C,/B,,/ A,,2 D,2 | G,,2 G,2 A,2 A,2 | DD,B,,G,, C,4 | D,4 E,4 | ^F,4 G,2 G,2 | C,2 C,2 D,4- | %344
w: * al- * le- lu-|ia, al- le- lu-|ia, al- le- lu- ia,|al- le-|lu- ia, al-|le- lu- ia,|
 D,4 z D B,G, | D,6 D,2 | G,,8 |] %347
w: * al- * *|le- lu-|ia.|
V:4
 x8 | x8 | x8 | G,,8 | G,,4- G,,4- | G,,4 G,,4 | G,,8- | G,,4 E,4- | E,8 | E,8 | E,2 ^F,2 G,4 | %11
w: ||||* X`&4|* %3||* 6||||
 G,,4 A,,4 | B,,4 C,4 | C,3 B,, A,,2 D,2 | G,,8 | G,,8 | E,4 D,4 | D,8 | G,,4 B,,4 | C,8- | %20
w: ||* * 7 &x|||7`````````6`x *|x|||
 C,4 B,,3 C, | D,4 G,,4 |[M:3/4] G,6 | G,2 ^F,4 | G,4 A,2 | B,6 | C,4 D,2 | E,4 B,,2 | %28
w: X`$2 * *|4``````3 *|||||||
 C,3 D, E,^F, | G,3 A, B,^C | D2 D,E, ^F,2 | G,3 A, B,^C | DC B,A, G,2 | CB, A,G, ^F,2 | G,4 A,2 | %35
w: * x * *|||||||
 D,2 E,2 ^F,2 | G,^F, G,E, F,2 | G,2 ^F,4 | G,3 A, B,2 | C4 B,2 | C2 B,4 | C4 C,2 | D,2 E,2 ^F,2 | %43
w: |||||||x * *|
 G,4 B,,2 | C,2 D,2 E,2 | D,6 | G,,6 | z2 z2 G,2 | C2 C2 C2 | A,2 A,2 A,2 | B,4 A,2 | G,2 ^F,4 | %52
w: ||||||x~6 * *||* x|
 G,2 E,4 | ^F,6 | B,,4 B,2 | E,4 D,2 | C,4 C2 | B,6 | A,6 | G,A, G,F, E,D, | C,6 | D,4 B,,2 | %62
w: |||||||||x *|
 C,2 D,2 D,,2 | G,3 F, E,2 | C,2 D,2 D,,2 | G,,6 || G,,6 | G,,6 | D,6 | A,,6 | D,4 D2 | %71
w: ||* x *||z|z|x|x||
 B,2 G,2 G,2 | C2 C2 C2 | A,2 A,2 A,2 | B,4 A,2 | ^G,6 | A,E, A,3 G, | ^F,6 | G,A, B,A, G,F, | %79
w: |||x *||x * * *|||
 E,^F, G,=F, E,D, | C,D, E,D, C,B,, | A,,2 G,,2 G,^F, | E,6 | ^F,6 | B,,4 B,2 | E,4 A,2 | D,4 G,2 | %87
w: ||* * 6 *||x||7`````6 *|7`````6 *|
 C,4 D,2 | B,,4 C,2 | A,,4 D,2 | G,,2 A,,2 B,,2 | C,4 D,2 | G,4 ^F,2 | E,4 D,2 | C,4 C2 | B,6 | %96
w: * x||* x||* &x|||||
 A,6 | G,A, G,F, E,D, | C,6 | D,4 B,,2 | C,4 D,2 | G,3 F, E,2 | C,2 D,2 D,,2 | G,,6 || %104
w: 6`x|||x *|* x||* x *||
[M:4/4] D,3 E, ^F,2 G,2 | A,4 D,4 | D2 A,2 B,2 ^F,2 | G,2 D,2 E,2 B,,2 | C,4 D,C, B,,2 | C,4 D,4 | %110
w: ||||* x * 6|* x|
 G,D, G,^F, E,B,, E,D, | ^C,B,, A,,2 B,,2 ^F,,2 | G,,4 A,,4 | D,2 DC B,2 ^A,2 | B,2 E,2 ^F,4 | %115
w: ||* x|x * * * *|* * 4````3|
 B,,2 B,2 A,4 | G,2 E,2 ^F,2 D,B,, | E,2 ^F,2 B,,2 B,A, | G,2 ^F,2 G,2 F,2 | E,2 A,,2 D,2 ^C,2 | %120
w: * * x|* * x * *|* x * * *|||
 B,,4 A,G, ^F,D, | G,4 A,2 ^F,D, | G,E, A,A,, D,4 || A,,8- | A,,4 A,,4- | A,,4 F,4- | F,6 E,2 | %127
w: |* x * *|||x`7 8|* 5|6 x|
 C,8 | C,8- | C,8 | D,4 C,2 D,2 | G,,4 ^G,,4- | G,,8- | G,,4 A,,4 | D,2 E,2 A,,4 || D,4 G,,4 | %136
w: |||x * 4``3|* 6||||x *|
 A,,4 D,4 | D,E, ^F,G, A,2 A,,2 | E,^F, ^G,E, A,,B,, ^C,D, | E,3 ^C, D,2 E,2 | A,,4 ^G,,4 | %141
w: ||x * * * x * * *|x * * x||
 ^F,,4 E,3 D, | ^C,4 D,E, ^F,2 | E,4 A,,2 A,G, | ^F,3 E, D,3 ^C, | B,,B, A,G, ^F,4 | G,,4 A,,4 | %147
w: 7`````6`x x *|* x * *|4````3 * * *|||* x|
 D,4 E,4 | A,2 ^F,2 G,3 A, | B,2 ^F,G, A,4 | D,8 |[M:3/4] G,6 | G,2 ^F,4 | G,4 B,,2 | C,6 | %155
w: * 4````3||* * * 4```3||||||
 D,4 ^F,2 | G,2 ^F,4 | G,4 B,,2 | C,6 | D,6 | E,4 B,,2 | C,2 D,2 E,2 | C,2 D,2 D,,2 | G,,4 E,2 | %164
w: x *||||x|z *|* x *|* x *|* 6|
 F,6 | G,4 E,2 | F,2 E,2 F,2- | F,2 G,2 G,,2 | C,2 B,,4 | C,4 C2 | B,4 A,2 | G,4 E,2 | %172
w: ||||* 6||||
 F,2 G,2 A,2 | F,2 G,2 G,,2 | C,4 B,,2 | C,6 | D,4 B,,2 | C,2 B,,2 C,2 | D,6 | G,2 ^F,4 | G,4 E,2 | %181
w: ||||x *||x||* 6|
 F,6 | G,6 | C2 B,2 A,2 | G,4 E,2 | F,G, A,B, C2 | F,2 G,2 G,,2 | C,4 B,,2 | C,6 | D,6 | %190
w: ||||||||x|
 G,F, G,E, D,G, | C,6 | D,4 B,,2 | C,4 G,,2 | C,2 D,2 D,,2 | G,,6 | G,,4 A,,2 | B,,4 G,,2 | %198
w: ||x *||* x *||||
 B,,4 C,2 | D,4 E,2 | ^F,6 | G,4 B,2 | A,2 G,2 ^F,2 | G,6 | A,6 | D,6 | E,4 G,2 | ^F,6 | G,6 | %209
w: * &5|||* 6`x||||x||||
 A,6 | B,4 G,2- | G,2 A,2 A,,2 | D,2 B,,4 | C,4 D,2 | G,4 ^F,2 | E,6 | D,2 DC B,G, | C4 A,2 | %218
w: x||* x *|* 6|6 &x|||x * * * *||
 B,4 G,2 | A,4 ^F,2 | G,2 ^F,2 E,2 | D,4 B,,2 | C,2 A,,2 G,,2- | G,,2 D,4 | G,,2 ^F,4 | G,2 A,4 | %226
w: |z *||* 6|* 6`x *|* 4````3|* 6|5 4|
 B,4 ^F,2 | G,2 ^F,3 E, | D,4 B,,2 | C,2 D,4 | E,4 B,,2 | C,4 D,2 | E,4 D,2 | C,4 B,,2 | %234
w: ||x *|* x||65 $x|||
 A,,2 B,,2 C,2 | D,4 ^C,2 | B,,4 A,,2 | G,,2 G,2 ^F,2 | E,2 B,,2 C,2 | D,2 C,2 D,2 | E,4 B,,2 | %241
w: |x *||||x * *||
 C,2 A,,2 D,2 | G,,2 G,2 ^F,2 | E,2 D,2 C,2 | D,6 | G,,6 |[M:3/2] G,12- | G,8 ^F,4 | G,8 ^F,4 | %249
w: * * x|* * 6|6 6 6|%4``````3|||$2 z`5|* 6|
 E,12 | D,8 D,4 | A,,8 B,,4 | C,12 | G,12 | G,8 ^F,4 | G,8 B,,4 | C,6 D,2 E,4 | D,8 B,,4 | %258
w: 7```````6`x|x z|6 z`5|%4`````3|%4`````3|$2 *|* 6|* x *|x 6|
 C,8 D,4 | G,8 E,4 | F,8 C,4- | C,4 G,8 | C,8 B,,4 | A,,8 D,4 | G,,8 ^F,4 | E,12 | D,8 B,,4 | %267
w: 6 7|||* 4``````3||* 7|* 6|7````x`6|x *|
 A,,8 D,4 | G,,8 G,4 | E,4 E,4 F,4 | D,4 D,4 E,4 | C,4 C,4 ^C,4 | D,8 B,,4 | C,8 E,4 | D,8 B,,4 | %275
w: * x||7 6 5|7 * 5|7 6 z`5|4````x`3 *|* 6`x|x *|
 A,,8 D,4 | G,,8 ^F,4 | E,12 | D,8 C,4 | B,,8 E,4 | A,,8 G,,4 | ^F,12 | E,8 B,,4 | %283
w: 7 7||7````6`x|x 6|7 &x||7``````````6`x||
 C,2 B,,2 C,2 D,2 E,2 F,2 | G,8 G,4 | G,8 ^F,4 | G,8 E,4 | F,8 G,4 | C,8 B,,4 | A,,12 | G,,8 E,,4 | %291
w: |5 6|3````z`5 *|||* 6|7````````6`x||
 F,,8 G,,4 | C,8 B,,4 | A,,12 | G,,8 G,4 | C12 | G,8 B,,4 | C,8 G,,4- | G,,4 D,8 | G,,8 G,4- | %300
w: ||7````````6`x|||* 6||* 4``````3||
 G,8 ^F,4 | G,8 ^F,4 | E,12 | D,8 D,4 | A,,8 B,,4 | C,12 | G,12 | G,8 ^F,4 | G,8 B,,4 | %309
w: $2 z`5||7`````6`x|x z|6 z`5|%4```````3````|%4```````3|$2 *||
 C,6 D,2 E,4 | D,8 B,,4 | C,8 D,4 | G,8 E,4 | F,8 C,4- | C,4 G,8 | C,8 B,,4 | C,8 D,4 | E,8 B,,4 | %318
w: * x 4|x *|6 7|* 6||* 4``````3||9````````8 7|6``````5 6|
 C,8 G,,4- | G,,4 D,8 | G,,12 |[M:4/4] G,4 E,2 ^F,2 | G,4 C,4 | D,3 B,, C,2 D,2 | %324
w: 5``````6`x *|* 4`````````x`3||* 6 *||x * 5 x|
 G,2 ^F,2 E,2 A,,2 | D,D B,G, C,2 D,2 | G,4 C,4 | D,3 C, B,,3 C, | D,4 G,,G, ^F,2 | E,4 D,2 G,2- | %330
w: * * 7 x|x * * * * x||x * * *|4``````3 * * 6|7```````6`x x *|
 G,2 ^F,2 G,4 | C,4 D,2 B,,2 | C,2 D,2 G,2 ^F,2 | E,2 A,2 D,2 B,,G,, | C,2 G,,2 C,2 D,2 | %335
w: $2 6 *|||7`x * x * *|* * * x|
 G,,2 D,2 B,,2 C,2 | D,4 G,,G, ^F,D, | G,2 E,A,, D,4 | B,,4 A,,2 D,2 | G,,4 A,,4 | %340
w: * x * *|x * * * *|* 6`x x x|* 7 x|* x|
 D,D, B,,G,, C,4 | D,4 E,4 | ^F,4 G,4 | C,4 D,4- | D,6 G,,2 | D,8 | G,,8 |] %347
w: x * * * *|%x````6 5`````6|6 *|||||

